outputs/icons/enterprise/choices_sharp.svg

<svg xmlns="http://www.w3.org/2000/svg" width="1200" height="1200" fill="none"><path fill="#000" fill-rule="evenodd" d="M384.082 842.04c4.123-.365 8.249.91 11.426 3.565a15.67 15.67 0 0 1 5.517 10.595 15.64 15.64 0 0 1-3.564 11.38l-18.506 22.165a124.9 124.9 0 0 1 29.639 53.86h70.312c6.963-26.81 22.664-50.545 44.579-67.48S572.305 849.98 600 850a125 125 0 0 1 76.56 26.125 125 125 0 0 1 44.535 67.48h70.41c6.96-26.81 22.665-50.545 44.58-67.48S884.905 849.98 912.6 850c27.7-.025 54.64 9.18 76.56 26.125a125 125 0 0 1 44.53 67.48h35.16c4.1-.01 8.17.83 11.96 2.39a31.3 31.3 0 0 1 10.155 6.74c2.91 2.9 5.21 6.365 6.79 10.155 1.575 3.79 2.435 7.86 2.44 11.965-.005 8.28-3.325 16.215-9.18 22.07s-13.79 9.175-22.07 9.18h-35.155a125.06 125.06 0 0 1-44.485 67.675 125.1 125.1 0 0 1-76.66 26.22 125.024 125.024 0 0 1-121.09-93.895H721.24a125.1 125.1 0 0 1-44.48 67.675 125.02 125.02 0 0 1-76.615 26.22 125 125 0 0 1-76.61-26.22 125.06 125.06 0 0 1-44.483-67.675H408.74a125.04 125.04 0 0 1-44.482 67.675 125 125 0 0 1-76.611 26.22 125 125 0 0 1-76.612-26.22 125.06 125.06 0 0 1-44.483-67.675h-35.155a31.33 31.33 0 0 1-22.119-9.18 31.24 31.24 0 0 1-9.131-22.07c0-8.29 3.272-16.26 9.131-22.12 5.86-5.86 13.83-9.13 22.119-9.13h35.155c6.961-26.815 22.614-50.59 44.532-67.53 21.919-16.94 48.86-26.1 76.563-26.075a124.35 124.35 0 0 1 67.383 19.725l18.457-22.165a15.65 15.65 0 0 1 10.595-5.52m-96.485 70.51c-16.566 0-32.47 6.555-44.189 18.26-11.722 11.72-18.311 27.66-18.311 44.24a62.55 62.55 0 0 0 18.311 44.19 62.55 62.55 0 0 0 44.189 18.31 62.54 62.54 0 0 0 44.19-18.31 62.54 62.54 0 0 0 18.31-44.19c0-16.58-6.589-32.52-18.31-44.24-11.717-11.715-27.621-18.255-44.19-18.26m312.503 0c-16.57 0-32.47 6.55-44.19 18.26-11.725 11.72-18.31 27.66-18.31 44.24a62.53 62.53 0 0 0 18.31 44.19 62.52 62.52 0 0 0 44.19 18.31 62.52 62.52 0 0 0 44.185-18.31 62.55 62.55 0 0 0 18.315-44.19 62.6 62.6 0 0 0-18.315-44.24c-11.72-11.71-27.62-18.26-44.185-18.26m312.5 0c-16.57 0-32.475 6.545-44.19 18.26-11.725 11.72-18.31 27.66-18.31 44.24a62.53 62.53 0 0 0 18.31 44.19 62.53 62.53 0 0 0 44.19 18.31c16.565 0 32.465-6.6 44.185-18.31a62.55 62.55 0 0 0 18.315-44.19 62.6 62.6 0 0 0-18.315-44.24c-11.715-11.71-27.62-18.26-44.185-18.26"/><path fill="#000" d="M461.963 748.585c4.114-.36 8.206.92 11.377 3.565a15.7 15.7 0 0 1 3.809 4.735c.947 1.815 1.575 3.82 1.757 5.86.181 2.035-.073 4.1-.683 6.055a15.8 15.8 0 0 1-2.93 5.37l-38.916 46.73a15.7 15.7 0 0 1-5.371 4.15 15.7 15.7 0 0 1-6.641 1.465c-3.654-.025-7.168-1.355-9.96-3.71-1.574-1.32-2.909-2.92-3.858-4.74a15.7 15.7 0 0 1-1.709-5.86c-.179-2.035.071-4.1.683-6.055a15.6 15.6 0 0 1 2.881-5.32l38.965-46.73a15.66 15.66 0 0 1 10.596-5.515"/><path fill="#000" fill-rule="evenodd" d="M503.565 467.041c2.04.182 4.045.761 5.86 1.709 1.81.947 3.42 2.243 4.735 3.808l18.455 22.168A124.35 124.35 0 0 1 600 475a125.04 125.04 0 0 1 76.56 26.125c21.92 16.94 37.62 40.665 44.585 67.48h70.36c6.96-26.81 22.66-50.545 44.58-67.48C858 484.19 884.905 474.98 912.6 475c27.7-.023 54.64 9.182 76.56 26.125a124.94 124.94 0 0 1 44.53 67.48h35.16c8.275.025 16.225 3.36 22.07 9.225a31.24 31.24 0 0 1 9.08 22.07c0 8.29-3.27 16.26-9.13 22.12s-13.835 9.13-22.12 9.13h-35.155a125 125 0 0 1-44.435 67.68 125.1 125.1 0 0 1-76.66 26.22 125 125 0 0 1-76.61-26.22 125 125 0 0 1-44.485-67.68h-70.31a125.03 125.03 0 0 1-44.485 67.68A124.97 124.97 0 0 1 600 725.05a124.46 124.46 0 0 1-67.385-19.73l-18.455 22.17c-1.465 1.76-3.345 3.18-5.42 4.15a15.6 15.6 0 0 1-6.59 1.465c-3.654 0-7.203-1.28-10.012-3.615-1.573-1.315-2.907-2.915-3.857-4.735a15.7 15.7 0 0 1-1.708-5.86c-.181-2.04.069-4.095.683-6.055a15.7 15.7 0 0 1 2.93-5.37l18.459-22.165a124.85 124.85 0 0 1-29.739-54.155h-70.312a125 125 0 0 1-44.482 67.68 125 125 0 0 1-76.612 26.22c-27.742 0-54.689-9.22-76.612-26.22a125.02 125.02 0 0 1-44.482-67.68H131.25c-8.288 0-16.258-3.27-22.119-9.13-5.859-5.86-9.131-13.83-9.131-22.12a31.26 31.26 0 0 1 9.131-22.07 31.35 31.35 0 0 1 22.119-9.18h35.156a125 125 0 0 1 44.532-67.48 125.1 125.1 0 0 1 76.562-26.121 125.08 125.08 0 0 1 76.563 26.121 125 125 0 0 1 44.531 67.48h70.458a124.9 124.9 0 0 1 29.638-53.855l-18.504-22.168a15.68 15.68 0 0 1-3.565-11.426 15.66 15.66 0 0 1 5.517-10.595 15.8 15.8 0 0 1 5.372-2.93c1.951-.61 4.02-.815 6.055-.635M287.597 537.5a62.55 62.55 0 0 0-44.189 18.31A62.55 62.55 0 0 0 225.097 600a62.62 62.62 0 0 0 18.311 44.24 62.55 62.55 0 0 0 44.189 18.31 62.55 62.55 0 0 0 44.19-18.31 62.62 62.62 0 0 0 18.31-44.24 62.54 62.54 0 0 0-18.31-44.19 62.54 62.54 0 0 0-44.19-18.31m312.503 0a62.52 62.52 0 0 0-44.19 18.31A62.52 62.52 0 0 0 537.6 600a62.6 62.6 0 0 0 18.31 44.24 62.54 62.54 0 0 0 44.19 18.31c16.57 0 32.465-6.6 44.185-18.31A62.6 62.6 0 0 0 662.6 600a62.55 62.55 0 0 0-18.315-44.19A62.52 62.52 0 0 0 600.1 537.5m312.5 0a62.54 62.54 0 0 0-44.19 18.31A62.52 62.52 0 0 0 850.1 600a62.6 62.6 0 0 0 18.31 44.24 62.54 62.54 0 0 0 44.19 18.31c16.565 0 32.465-6.6 44.185-18.31A62.6 62.6 0 0 0 975.1 600a62.55 62.55 0 0 0-18.315-44.19A62.55 62.55 0 0 0 912.6 537.5"/><path fill="#000" d="M425.732 373.633c2.032.183 4.002.766 5.811 1.709 1.819.949 3.468 2.235 4.785 3.808l38.916 46.729a15.6 15.6 0 0 1 2.93 5.322c.613 1.954.814 4.014.634 6.055a15.65 15.65 0 0 1-1.708 5.859 15.6 15.6 0 0 1-3.809 4.736c-2.789 2.345-6.318 3.66-9.961 3.662a15.7 15.7 0 0 1-6.641-1.464c-2.077-.962-3.945-2.35-5.42-4.101l-38.915-46.729a15.7 15.7 0 0 1-2.93-5.372 15.7 15.7 0 0 1-.635-6.054 15.7 15.7 0 0 1 1.709-5.859 15.67 15.67 0 0 1 9.131-7.666c1.958-.615 4.059-.816 6.103-.635"/><path fill="#000" fill-rule="evenodd" d="M912.6 100c27.7-.023 54.64 9.181 76.56 26.123a124.96 124.96 0 0 1 44.53 67.48h35.16a31.3 31.3 0 0 1 22.02 9.18 31.33 31.33 0 0 1 9.13 22.07c0 8.283-3.325 16.212-9.18 22.071-5.855 5.855-13.79 9.174-22.07 9.179h-35.155a125.03 125.03 0 0 1-44.485 67.677A125.1 125.1 0 0 1 912.45 350c-27.735 0-54.69-9.223-76.61-26.22a125.06 125.06 0 0 1-44.485-67.677h-70.31a125 125 0 0 1-44.435 67.677A125.1 125.1 0 0 1 599.95 350a125 125 0 0 1-76.61-26.22 125 125 0 0 1-44.483-67.677h-70.312a125 125 0 0 1-29.688 54.151l18.458 22.168a15.7 15.7 0 0 1 2.929 5.371c.612 1.955.816 4.015.635 6.054a15.7 15.7 0 0 1-1.709 5.86 15.6 15.6 0 0 1-3.808 4.736 15.62 15.62 0 0 1-9.962 3.614 15.7 15.7 0 0 1-6.64-1.465 15.7 15.7 0 0 1-5.372-4.151l-18.505-22.167A124.5 124.5 0 0 1 287.5 350a125 125 0 0 1-76.612-26.22 125 125 0 0 1-44.482-67.677H131.25a31.33 31.33 0 0 1-22.119-9.179A31.25 31.25 0 0 1 100 224.853c0-8.286 3.272-16.258 9.131-22.119 5.861-5.86 13.831-9.13 22.119-9.131h35.156a125 125 0 0 1 44.532-67.48A125.1 125.1 0 0 1 287.5 100a125.07 125.07 0 0 1 76.563 26.123 125 125 0 0 1 44.531 67.48h70.312c6.961-26.813 22.664-50.539 44.579-67.48C545.4 109.186 572.305 99.981 600 100a125.05 125.05 0 0 1 76.56 26.123c21.915 16.941 37.625 40.67 44.585 67.48h70.36c6.96-26.814 22.66-50.539 44.58-67.48C858 109.185 884.9 99.98 912.6 100m-625.003 62.5a62.517 62.517 0 0 0-62.5 62.5 62.5 62.5 0 0 0 18.311 44.19 62.5 62.5 0 0 0 44.189 18.31 62.52 62.52 0 0 0 44.19-18.31 62.52 62.52 0 0 0 18.31-44.19 62.518 62.518 0 0 0-62.5-62.5m312.503 0a62.5 62.5 0 0 0-44.19 18.311A62.5 62.5 0 0 0 537.6 225a62.5 62.5 0 0 0 18.31 44.19 62.49 62.49 0 0 0 44.19 18.31 62.48 62.48 0 0 0 44.185-18.31A62.5 62.5 0 0 0 662.6 225a62.52 62.52 0 0 0-18.315-44.189A62.5 62.5 0 0 0 600.1 162.5m312.5 0a62.5 62.5 0 0 0-44.19 18.311A62.5 62.5 0 0 0 850.1 225a62.5 62.5 0 0 0 18.31 44.19 62.5 62.5 0 0 0 44.19 18.31 62.5 62.5 0 0 0 44.185-18.31A62.48 62.48 0 0 0 975.1 225a62.52 62.52 0 0 0-18.315-44.189A62.5 62.5 0 0 0 912.6 162.5"/></svg>

<svg width="1200" height="1200" viewBox="0 0 1200 1200" fill="none" xmlns="http://www.w3.org/2000/svg"><path fill-rule="evenodd" d="M384.082 842.04C388.205 841.675 392.331 842.95 395.508 845.605C398.673 848.265 400.659 852.085 401.025 856.2C401.386 860.315 400.107 864.405 397.461 867.58L378.955 889.745C393.164 904.945 403.361 923.465 408.594 943.605H478.906C485.869 916.795 501.57 893.06 523.485 876.125C545.4 859.19 572.305 849.98 600 850C627.705 849.975 654.645 859.18 676.56 876.125C698.475 893.06 714.13 916.8 721.095 943.605H791.505C798.465 916.795 814.17 893.06 836.085 876.125C858 859.19 884.905 849.98 912.6 850C940.3 849.975 967.24 859.18 989.16 876.125C1011.07 893.06 1026.73 916.8 1033.69 943.605H1068.85C1072.95 943.595 1077.02 944.435 1080.81 945.995C1084.6 947.56 1088.06 949.84 1090.965 952.735C1093.875 955.635 1096.175 959.1 1097.755 962.89C1099.33 966.68 1100.19 970.75 1100.195 974.855C1100.19 983.135 1096.87 991.07 1091.015 996.925C1085.16 1002.78 1077.225 1006.1 1068.945 1006.105H1033.79C1026.885 1032.97 1011.225 1056.78 989.305 1073.78C967.38 1090.78 940.39 1100.005 912.645 1100C884.91 1100 857.955 1090.775 836.035 1073.78C814.115 1056.78 798.455 1032.97 791.555 1006.105H721.24C714.335 1032.965 698.675 1056.78 676.76 1073.78C654.835 1090.775 627.885 1100.005 600.145 1100C572.41 1100.005 545.455 1090.775 523.535 1073.78C501.615 1056.78 485.957 1032.97 479.052 1006.105H408.74C401.837 1032.97 386.178 1056.78 364.258 1073.78C342.337 1090.775 315.385 1100.005 287.647 1100C259.909 1100.005 232.957 1090.775 211.035 1073.78C189.116 1056.78 173.457 1032.97 166.552 1006.105H131.397C123.108 1006.105 115.138 1002.785 109.278 996.925C103.427 991.07 100.152 983.13 100.147 974.855C100.147 966.565 103.419 958.595 109.278 952.735C115.138 946.875 123.108 943.605 131.397 943.605H166.552C173.513 916.79 189.166 893.015 211.084 876.075C233.003 859.135 259.944 849.975 287.647 850C311.536 849.965 334.93 856.815 355.03 869.725L373.487 847.56C376.142 844.39 379.965 842.41 384.082 842.04ZM287.597 912.55C271.031 912.55 255.127 919.105 243.408 930.81C231.686 942.53 225.097 958.47 225.097 975.05C225.103 991.62 231.691 1007.52 243.408 1019.24C255.128 1030.95 271.029 1037.55 287.597 1037.55C304.168 1037.545 320.07 1030.955 331.787 1019.24C343.504 1007.52 350.092 991.62 350.097 975.05C350.097 958.47 343.508 942.53 331.787 930.81C320.07 919.095 304.166 912.555 287.597 912.55ZM600.1 912.55C583.53 912.55 567.63 919.1 555.91 930.81C544.185 942.53 537.6 958.47 537.6 975.05C537.605 991.62 544.19 1007.52 555.91 1019.24C567.63 1030.955 583.525 1037.55 600.1 1037.55C616.67 1037.55 632.565 1030.955 644.285 1019.24C656.005 1007.52 662.59 991.62 662.6 975.05C662.6 958.47 656.01 942.53 644.285 930.81C632.565 919.1 616.665 912.55 600.1 912.55ZM912.6 912.55C896.03 912.55 880.125 919.095 868.41 930.81C856.685 942.53 850.1 958.47 850.1 975.05C850.105 991.62 856.69 1007.52 868.41 1019.24C880.125 1030.955 896.025 1037.545 912.6 1037.55C929.165 1037.55 945.065 1030.95 956.785 1019.24C968.505 1007.52 975.09 991.62 975.1 975.05C975.1 958.47 968.51 942.53 956.785 930.81C945.07 919.1 929.165 912.55 912.6 912.55Z" fill="black"/><path d="M461.963 748.585C466.077 748.225 470.169 749.505 473.34 752.15C474.906 753.46 476.2 755.075 477.149 756.885C478.096 758.7 478.724 760.705 478.906 762.745C479.087 764.78 478.833 766.845 478.223 768.8C477.608 770.755 476.61 772.595 475.293 774.17L436.377 820.9C434.912 822.655 433.077 824.075 431.006 825.05C428.932 826.02 426.656 826.515 424.365 826.515C420.711 826.49 417.197 825.16 414.405 822.805C412.831 821.485 411.496 819.885 410.547 818.065C409.601 816.25 409.019 814.245 408.838 812.205C408.659 810.17 408.909 808.105 409.521 806.15C410.133 804.21 411.097 802.395 412.402 800.83L451.367 754.1C454.026 750.935 457.845 748.95 461.963 748.585Z" fill="black"/><path fill-rule="evenodd" d="M503.565 467.041C505.605 467.223 507.61 467.802 509.425 468.75C511.235 469.697 512.845 470.993 514.16 472.558L532.615 494.726C552.71 481.814 576.115 474.966 600 475C627.705 474.977 654.645 484.182 676.56 501.125C698.48 518.065 714.18 541.79 721.145 568.605H791.505C798.465 541.795 814.165 518.06 836.085 501.125C858 484.19 884.905 474.98 912.6 475C940.3 474.977 967.24 484.182 989.16 501.125C1011.075 518.06 1026.73 541.795 1033.69 568.605H1068.85C1077.125 568.63 1085.075 571.965 1090.92 577.83C1096.75 583.695 1100.01 591.63 1100 599.9C1100 608.19 1096.73 616.16 1090.87 622.02C1085.01 627.88 1077.035 631.15 1068.75 631.15H1033.595C1026.695 658.015 1011.075 681.825 989.16 698.83C967.235 715.83 940.245 725.055 912.5 725.05C884.76 725.05 857.81 715.83 835.89 698.83C813.965 681.825 798.305 658.02 791.405 631.15H721.095C714.19 658.025 698.535 681.825 676.61 698.83C654.685 715.83 627.745 725.055 600 725.05C576.11 725.075 552.72 718.23 532.615 705.32L514.16 727.49C512.695 729.25 510.815 730.67 508.74 731.64C506.675 732.605 504.425 733.105 502.15 733.105C498.496 733.105 494.947 731.825 492.138 729.49C490.565 728.175 489.231 726.575 488.281 724.755C487.333 722.94 486.754 720.94 486.573 718.895C486.392 716.855 486.642 714.8 487.256 712.84C487.87 710.885 488.868 709.045 490.186 707.47L508.645 685.305C494.357 670.03 484.118 651.405 478.906 631.15H408.594C401.692 658.025 386.036 681.825 364.112 698.83C342.188 715.825 315.242 725.055 287.5 725.05C259.758 725.05 232.811 715.83 210.888 698.83C188.966 681.825 173.308 658.025 166.406 631.15H131.25C122.962 631.15 114.992 627.88 109.131 622.02C103.272 616.16 100 608.19 100 599.9C100.001 591.625 103.286 583.69 109.131 577.83C114.992 571.97 122.962 568.655 131.25 568.65H166.406C173.365 541.845 189.03 518.11 210.938 501.17C232.855 484.232 259.8 475.028 287.5 475.049C315.203 475.026 342.143 484.23 364.063 501.17C385.974 518.11 401.634 541.845 408.594 568.65H479.052C484.284 548.51 494.48 530 508.69 514.795L490.186 492.627C487.531 489.45 486.255 485.325 486.621 481.201C486.991 477.084 488.97 473.262 492.138 470.606C493.711 469.29 495.554 468.29 497.51 467.676C499.461 467.066 501.53 466.861 503.565 467.041ZM287.597 537.5C271.029 537.5 255.128 544.1 243.408 555.81C231.692 567.525 225.104 583.43 225.097 600C225.097 616.575 231.686 632.515 243.408 644.24C255.128 655.95 271.03 662.55 287.597 662.55C304.167 662.545 320.069 655.955 331.787 644.24C343.508 632.515 350.097 616.575 350.097 600C350.091 583.43 343.503 567.525 331.787 555.81C320.069 544.095 304.168 537.505 287.597 537.5ZM600.1 537.5C583.525 537.5 567.63 544.095 555.91 555.81C544.19 567.525 537.605 583.43 537.6 600C537.6 616.575 544.185 632.515 555.91 644.24C567.63 655.95 583.525 662.55 600.1 662.55C616.67 662.55 632.565 655.95 644.285 644.24C656.01 632.515 662.6 616.575 662.6 600C662.59 583.43 656.005 567.525 644.285 555.81C632.565 544.095 616.67 537.5 600.1 537.5ZM912.6 537.5C896.03 537.505 880.125 544.095 868.41 555.81C856.69 567.525 850.105 583.43 850.1 600C850.1 616.575 856.685 632.515 868.41 644.24C880.125 655.955 896.03 662.545 912.6 662.55C929.165 662.55 945.065 655.95 956.785 644.24C968.51 632.515 975.1 616.575 975.1 600C975.09 583.43 968.505 567.525 956.785 555.81C945.065 544.1 929.165 537.5 912.6 537.5Z" fill="black"/><path d="M425.732 373.633C427.764 373.816 429.734 374.399 431.543 375.342C433.362 376.291 435.011 377.577 436.328 379.15L475.244 425.879C476.555 427.449 477.561 429.251 478.174 431.201C478.787 433.155 478.988 435.215 478.808 437.256C478.627 439.3 478.05 441.296 477.1 443.115C476.152 444.93 474.859 446.537 473.291 447.851C470.502 450.196 466.973 451.511 463.33 451.513C461.043 451.524 458.765 451.007 456.689 450.049C454.612 449.087 452.744 447.699 451.269 445.948L412.354 399.219C411.036 397.645 410.038 395.805 409.424 393.847C408.813 391.894 408.608 389.832 408.789 387.793C408.972 385.754 409.55 383.748 410.498 381.934C411.447 380.124 412.74 378.509 414.307 377.197C415.874 375.887 417.68 374.882 419.629 374.268C421.587 373.653 423.688 373.452 425.732 373.633Z" fill="black"/><path fill-rule="evenodd" d="M912.6 100C940.3 99.977 967.24 109.181 989.16 126.123C1011.075 143.064 1026.73 166.794 1033.69 193.603H1068.85C1077.105 193.639 1085.04 196.934 1090.87 202.783C1096.7 208.64 1100 216.589 1100 224.853C1100 233.136 1096.675 241.065 1090.82 246.924C1084.965 252.779 1077.03 256.098 1068.75 256.103H1033.595C1026.695 282.971 1011.03 306.778 989.11 323.78C967.185 340.781 940.195 350.005 912.45 350C884.715 350 857.76 340.777 835.84 323.78C813.92 306.778 798.26 282.972 791.355 256.103H721.045C714.145 282.966 698.525 306.779 676.61 323.78C654.685 340.781 627.695 350.005 599.95 350C572.21 350.003 545.26 340.779 523.34 323.78C501.415 306.778 485.759 282.975 478.857 256.103H408.545C403.331 276.351 393.128 294.973 378.857 310.254L397.315 332.422C398.631 333.995 399.63 335.835 400.244 337.793C400.856 339.748 401.06 341.808 400.879 343.847C400.697 345.889 400.119 347.89 399.17 349.707C398.221 351.519 396.93 353.131 395.362 354.443C392.563 356.772 389.041 358.05 385.4 358.057C383.113 358.058 380.832 357.56 378.76 356.592C376.69 355.623 374.853 354.196 373.388 352.441L354.883 330.274C334.779 343.177 311.388 350.026 287.5 350C259.759 350.003 232.811 340.779 210.888 323.78C188.965 306.778 173.308 282.975 166.406 256.103H131.25C122.962 256.103 114.992 252.785 109.131 246.924C103.286 241.066 100.001 233.129 100 224.853C100 216.567 103.272 208.595 109.131 202.734C114.992 196.874 122.962 193.604 131.25 193.603H166.406C173.364 166.799 189.031 143.063 210.938 126.123C232.855 109.183 259.8 99.978 287.5 100C315.203 99.977 342.143 109.181 364.063 126.123C385.974 143.064 401.635 166.796 408.594 193.603H478.906C485.867 166.79 501.57 143.064 523.485 126.123C545.4 109.186 572.305 99.981 600 100C627.705 99.977 654.645 109.181 676.56 126.123C698.475 143.064 714.185 166.793 721.145 193.603H791.505C798.465 166.789 814.165 143.064 836.085 126.123C858 109.185 884.9 99.98 912.6 100ZM287.597 162.5C271.025 162.5 255.129 169.094 243.408 180.811C231.688 192.531 225.099 208.425 225.097 225C225.097 241.576 231.686 257.468 243.408 269.19C255.13 280.909 271.022 287.5 287.597 287.5C304.17 287.497 320.068 280.908 331.787 269.19C343.503 257.469 350.097 241.573 350.097 225C350.096 208.426 343.506 192.531 331.787 180.811C320.068 169.092 304.17 162.503 287.597 162.5ZM600.1 162.5C583.52 162.5 567.63 169.091 555.91 180.811C544.19 192.531 537.6 208.425 537.6 225C537.6 241.575 544.19 257.468 555.91 269.19C567.63 280.911 583.52 287.5 600.1 287.5C616.675 287.5 632.565 280.911 644.285 269.19C656.005 257.468 662.6 241.575 662.6 225C662.595 208.425 656.005 192.531 644.285 180.811C632.565 169.091 616.675 162.5 600.1 162.5ZM912.6 162.5C896.025 162.504 880.125 169.092 868.41 180.811C856.69 192.531 850.1 208.427 850.1 225C850.1 241.573 856.69 257.469 868.41 269.19C880.125 280.908 896.025 287.497 912.6 287.5C929.175 287.5 945.065 280.909 956.785 269.19C968.51 257.468 975.1 241.576 975.1 225C975.095 208.425 968.505 192.531 956.785 180.811C945.065 169.094 929.17 162.5 912.6 162.5Z" fill="black"/></svg>
